X: 132
T:Miss Clementina Stewart
M:C|
L:1/8
K:A
||:E|"A"A2 ce aecA|cecA "E"GBGE|"A"A2 ce aecA|ce"E"BG "A"A2 A:||!
e|"A"aecA ceaf|"D"afdf b"E"age|"A"aece aced|cB"E"AG "A"A2 ag|!
"A"aece "D"dafd|"A"cecA "E"GBGE|"A"aece "D"dafd|"A"ce"E"BG "A"A2 A||
% <A name="D1X133">
